!!!COM: Amaradeva, Wannakuwattawaduge Don
!!!CDT: b.1927
!!!OTL: National Anthem; Maldives, The
!!!ENC: Davis, Matthew J.
!!Vocal Line Only
**kern
*clefG2
*k[b-]
*F:
*M2/2
=1-
2f
=2
2.cc
4bn
=3
4cc
4cc
4cc
4dd
=4
8cc
8b-
2a
4g
=5
2a
4a
4cc
=6
2.b-
4a
=7
2b-
4b-
8cc
8b-
=8
[1a
=9
4a]
4r
2f
=10
2.g
4f
=11
2g
4g
4g
=12
4e
2e
4f
=13
2a
4cc
8dd
8cc
=14
2.b-
8cc
8b-
=15
2a
4a
4g
=16
[1f
=17
4f]
4r
!Fine
==18
2f
=19
2.b-
4a
=20
2cc
4cc
4cc
=21
2.ee
4dd
=22
2ff
4ff
4ee
=23
2.g
4f
=24
2aa
4aa
4gg
=25
[1ff
=26
4ff]
4r
4a
4b-
=17
2.cc
4b-
=28
2dd
4g
4a
=29
2.b-
4a
=30
2cc
4e
4f
=31
2.g
4f
=32
2a
4d
4e
=33
[1f
=34
4f]
4r
!D.C. al Fine
==|!
*-
